X:1
T:Elle s'en va de moy
T:Severin Cornet
T:Source : La fleur des chansons à 3---Louvain---P.Phalèse---1574. Editor : André Vierendeels (31/08/18) Notes : Original clefs : G2, C2, C3 Original note values have been halved Editorial accidentals above the staff Square bracket indicats ligature
T:Elle s'en va de moy
T:©
T:©
T:©
T:©
T:©
C:Severin Cornet
Z:©
%%score [ 1 2 3 ]
L:1/8
Q:1/4=120
M:2/2
K:F
V:1 treble nm="Soprano" snm="S"
V:2 treble nm="Alto" snm="A"
V:3 treble-8 nm="Tenor" snm="T"
V:1
 z8 | z2 c2 eg f2 | e2 dd ff f2 | e2 z c eg f2 | e2 dd ee g2 | c2 z c eg f2 | e2 d3 A B2- | %7
w: |El- le s'en va|de moy, la mieux ay- mé-|e, el- le s'en va|de moy, la mieux ay- mé-|e, el- le s'en va|de moy, la mieux|
 B2 A2 G4 | A2 z A AA c2- | cB/A/ G2 z2 d2 | d2 d2 c2 f2- | ff d2 c2 A2 | f3 e dc d2 | ^c4 z2 A2 | %14
w: _ ay- mé-|e, el- le s'en va|_ _ _ _ el-|le s'en va cer-|* tes et si de-|meu- * * * *|re de-|
 F2 B2 A2 A2 | F2 B2 A2 z2 | A3 A F2 f2- | fe d2 B2 _e2- | e_e c2 ff d2 | c4 c3 c | A f2 e d4 | %21
w: dans mon cueur, de-|dans mon cueur|tel- le- ment im|_ pri- mé- e, tel-|* le- ment im- pri- mé|e, tel- le|ment im- pri- mé-|
 c3 B/A/ G4 | z4 A4 | B2 G2 F4 | c2 f4 e2 | d2 c2 BA A2- | A2 G2 A4 | z2 F2 f2 e2 | d2 c2 B4 | %29
w: * * * e,|qu'el-|le'y se- ra|ius- ques à|ce qu'il meu- * *|* * re,|ius- ques à|ce qu'il meu-|
 A4 z2 c2 | f2 d2 d3 c/B/ | A2 c2 BAAG/F/ | G4 A4- | A8 |] %34
w: re, ius-|ques à ce _ _|_ qu'il meu- * * * *|* re.|_|
V:2
 z4 F2 Ac | B2 A2 G2 A2 | cG B2 AAAF | G4 C4 | z2 F2 Ac B2 | A2 G4 A2 | cG B2 A2 F2 | %7
w: El- le s'en|va de moy, la|mieux ay- mé- e, la mieux ay-|mé- e,|el- le s'en va|de moy, la|mieux ay- mé- e, la|
 DD F3 E/D/ E2 | F4 z2 C2 | E2 E2 F2 z F | F2 G2 A2 A2 | A2 B2 A2 c2 | BA A3 G/F/GD | F2 E2 z2 D2 | %14
w: mieux ay- mé- * * *|e, el-|le s'en va, el-|le s'en va cer-|tes et si de-|meu- * * * * * *|* re, de-|
 D2 E2 F2 z F | D2 B,2 F4 | z2 D3 D B,2 | B2 B2 G/F/G/A/ B2- | B2 A2 z2 B2- | BB A4 G2 | %20
w: dans mon cueur, de-|dans mon cueur|tel- le- ment|im- pri- mé- * * * *|* e, tel-|* le- ment im-|
 c2 c3 B/A/ B2 | c4 z2 E2 | F2 D2 C2 z F | D2 E2 F2 D2 | A6 G2 | FGAG F2 E2 | D3 E F2 E2 | %27
w: pri- mé- * * *|e, qu'el-|le'y se- ra, qu'el-|le'y se- ra ius-|ques à|ce _ _ _ _ qu'il|meu- * * re,|
 z2 A2 B2 G2 | GF F3 E/D/ E2 | F2 F2 E2 F2 | B,2 F2 B2 A2 | DD G3 F F2- |"^-natural" FE/D/ E2 F4- | %33
w: ius- ques à|ce- qu'il meu- * * *|re, qu'el- le'y se-|ra ius- ques à|ce qu'il meu- * *|* * * * re.|
 F8 |] %34
w: _|
V:3
 F2 Ac B2 A2 | G2 F2 cG d2 | AcBG d4 | c4 z2 F2 | Ac B2 A2 G2 | F2 c3 G d2 | AcBG d3 e | f4 c4 | %8
w: El- le s'en va de|moy, la mieux ay- mé-|e, la mieux ay- mé-|e, el-|le s'en va de moy,|la mieux ay- mé-|e, la mieux ay- mé- *|* e,|
 z2 F2 F2 F2 | c4 z2 B2 | B2 B2 f2 d2- | dd B2 f2 f2 | d3 c BA B2 | A4 z2 f2 | B2 G2 d4 | %15
w: el- le s'en|va, el-|le s'en va cer-|* tes et si de-|meu- * * * *|re, de-|dans mon cueur,|
 z2 f2 d2 B2 | f4 z2 d2- | dd B2 _e2 e2 | c4 B4 | z2 f3 f e2 | f2 c2 g4 | c4 z2 c2 | A2 B2 F4 | %23
w: de- dans mon|cueur tel-|* le- ment im- pri-|mé- e,|tel- le- ment|im- pri- mé-|e, qu'el-|le'y se- ra,|
 z2 c2 A2 B2 | F2 F2 c2 c2 | defe d2 c2 | B4 A2 A2 | d6 c2 | B2 A2 G4 | F4 z2 A2 | d2 B2 Bcde | %31
w: qu'el- le'y se-|ra ius- ques à|ce _ _ _ _ qu'il|meu- re, ius-|que à|ce qu'il meu-|re, ius-|ques à ce _ _ _|
 f2 _e2 d4 | c4 F4- | F8 |] %34
w: _ qu'il meu-|* re.|_|

